X: 1
T: Mi Go Zatvorile (Lesnoto)
O: Macedonia
Z: http://swissnet.ai.mit.edu/~jaffer/CFO.html
S: Aubrey Jaffer 2002-3-15
P: IV2IV2IV2
%%MIDI channel 1
%%MIDI program 1 71
%%MIDI gchord f3c2c2
%%MIDI chordprog 42
%%MIDI chordvol 55
%%MIDI bassprog 43
%%MIDI bassvol 55
Q: 3/8=90
M: 7/8
L: 1/8
K: D
P: I
|: "D"[FD][GE][AF] [FD][GE] [AF][BG] | "G"[dB][cA][BG] "D"[AF][GE] [FD]z\
 | "D"[FD][GE][AF] [FD][GE] [AF][BG] | "G"[dB][cA][BG] "A"[c2A2] z2 |
   "A"[cA][dB][ec] [dB][cA][BG][dB] | [c2A2][BG] "D"[AF][GE] [F2D2]\
 | "G"[dB][cA][BG] "A"[AF][BG][AF][GC] | "D"[F3D3] z2 z2 :|
P: V
   "D"[FD][F2D2] [A2F2] [A2F2] | "G"([G2E2][FD]) "D"[F2D2] z2\
